dist/img/catalog-brand/cb_icon_4.svg

<svg width="28" height="28" viewBox="0 0 28 28" fill="none" xmlns="http://www.w3.org/2000/svg">
<path d="M2.7998 14V24.8C2.7998 25.7936 3.53317 26.6 4.43314 26.6H12.5998V14H2.7998Z" fill="#FC00FF"/>
<path d="M25.0254 7.78667H20.0421C20.3996 7.53798 20.7067 7.2909 20.9209 7.06949C22.192 5.76832 22.192 3.65049 20.9209 2.34931C19.6861 1.08183 17.5347 1.08504 16.3015 2.34931C15.6179 3.04723 13.8067 5.88865 14.0571 7.78667H13.9437C14.1925 5.88865 12.3813 3.04723 11.6993 2.34931C10.4645 1.08504 8.31307 1.08504 7.07984 2.34931C5.81039 3.65049 5.81039 5.76832 7.07827 7.06949C7.29404 7.2909 7.60117 7.53798 7.95869 7.78667H2.97539C2.10757 7.78667 1.40039 8.50705 1.40039 9.39108V11.7977C1.40039 12.2405 1.75319 12.5999 2.18789 12.5999H12.4254V9.39108H15.5754V12.5999H25.8129C26.2476 12.5999 26.6004 12.2405 26.6004 11.7977V9.39108C26.6004 8.50705 25.8948 7.78667 25.0254 7.78667ZM12.3325 7.73372C12.3325 7.73372 12.2663 7.78667 12.0411 7.78667C10.9528 7.78667 8.87534 6.6347 8.19652 5.93838C7.53659 5.26132 7.53659 4.15749 8.19652 3.48042C8.51624 3.15312 8.93992 2.97343 9.39037 2.97343C9.83924 2.97343 10.2629 3.15312 10.5826 3.48042C11.6442 4.56822 12.6994 7.34706 12.3325 7.73372ZM15.9581 7.78667C15.7345 7.78667 15.6683 7.73533 15.6683 7.73372C15.3013 7.34706 16.3566 4.56822 17.4181 3.48042C18.0529 2.82743 19.1632 2.82422 19.8043 3.48042C20.4658 4.15749 20.4658 5.26132 19.8043 5.93838C19.1254 6.6347 17.048 7.78667 15.9581 7.78667Z" fill="#FC00FF"/>
<path d="M15.4004 14V26.6H23.5671C24.4687 26.6 25.2004 25.7936 25.2004 24.8V14H15.4004Z" fill="#FC00FF"/>
</svg>

<svg width="28" height="28" viewBox="0 0 28 28" fill="none" xmlns="http://www.w3.org/2000/svg"><path d="M2.8 14v10.8c0 .994.733 1.8 1.633 1.8H12.6V14H2.8zm22.225-6.213h-4.983c.358-.249.665-.496.879-.718a3.398 3.398 0 000-4.72c-1.235-1.267-3.386-1.264-4.62 0-.683.698-2.494 3.54-2.244 5.438h-.113c.248-1.898-1.563-4.74-2.245-5.438-1.235-1.264-3.386-1.264-4.62 0a3.403 3.403 0 000 4.72c.215.222.522.469.88.718H2.975c-.867 0-1.575.72-1.575 1.604v2.407c0 .443.353.802.788.802h10.237V9.39h3.15v3.21h10.238c.435 0 .787-.36.787-.802V9.39c0-.884-.705-1.604-1.575-1.604zm-12.692-.053s-.067.053-.292.053c-1.088 0-3.166-1.152-3.844-1.849a1.773 1.773 0 010-2.458 1.658 1.658 0 012.386 0c1.061 1.088 2.116 3.867 1.75 4.254zm3.625.053c-.223 0-.29-.052-.29-.053-.367-.387.689-3.166 1.75-4.254.635-.653 1.745-.656 2.386 0a1.77 1.77 0 010 2.458c-.679.697-2.756 1.849-3.846 1.849zM15.4 14v12.6h8.167c.902 0 1.633-.806 1.633-1.8V14h-9.8z" fill="#FC00FF"/></svg>
